packages/components/icon/src/assets/icons/reset.svg

<svg width="24" height="24" viewBox="0 0 24 24" fill="none" xmlns="http://www.w3.org/2000/svg">
<path fill-rule="evenodd" clip-rule="evenodd" d="M12.8512 6C14.1529 6 15.3497 6.32179 16.4416 6.96539C17.5336 7.60899 18.4013 8.47675 19.0449 9.5687C19.6885 10.6606 20.0103 11.8574 20.0103 13.1591C20.0103 14.0558 19.8549 14.9091 19.5439 15.719C19.233 16.5289 18.7955 17.2521 18.2314 17.8884C18.1302 17.9897 18.0217 18.0403 17.906 18.0403C17.7903 18.0403 17.6818 17.9897 17.5806 17.8884L16.2355 16.5434C16.1343 16.4421 16.0837 16.3264 16.0837 16.1963C16.0837 16.0661 16.1271 15.9504 16.2138 15.8492C16.8357 15.0682 17.1467 14.1715 17.1467 13.1591C17.1467 12.3781 16.9551 11.6586 16.5718 11.0005C16.1885 10.3425 15.6679 9.8218 15.0098 9.43853C14.3518 9.05527 13.6322 8.86364 12.8512 8.86364C12.0702 8.86364 11.3507 9.05527 10.6927 9.43853C10.0346 9.8218 9.51395 10.3425 9.13068 11.0005C8.74742 11.6586 8.55579 12.3781 8.55579 13.1591H9.9876C10.1612 13.1591 10.2479 13.2169 10.2479 13.3326C10.2479 13.405 10.219 13.4773 10.1612 13.5496L7.55785 16.8905C7.44215 17.0496 7.29752 17.1291 7.12397 17.1291C6.96488 17.1291 6.82025 17.0496 6.69008 16.8905L4.08678 13.5496C4.02893 13.4773 4 13.405 4 13.3326C4 13.2169 4.08678 13.1591 4.26033 13.1591H5.69215C5.69215 11.8574 6.01394 10.6606 6.65754 9.5687C7.30114 8.47675 8.1689 7.60899 9.26085 6.96539C10.3528 6.32179 11.5496 6 12.8512 6Z" fill="currentColor"/>
</svg>

<svg viewBox="0 0 24 24" fill="none" xmlns="http://www.w3.org/2000/svg"><path fill-rule="evenodd" clip-rule="evenodd" d="M12.851 6c1.302 0 2.499.322 3.59.965a7.244 7.244 0 0 1 2.604 2.604 6.942 6.942 0 0 1 .965 3.59 7.08 7.08 0 0 1-.466 2.56 7.05 7.05 0 0 1-1.313 2.17.456.456 0 0 1-.325.151.456.456 0 0 1-.325-.152l-1.346-1.345a.478.478 0 0 1-.151-.347c0-.13.043-.246.13-.347a4.198 4.198 0 0 0 .933-2.69c0-.78-.192-1.5-.575-2.159a4.259 4.259 0 0 0-1.562-1.56 4.213 4.213 0 0 0-2.159-.575c-.78 0-1.5.191-2.158.575A4.259 4.259 0 0 0 9.13 11a4.213 4.213 0 0 0-.575 2.158h1.432c.173 0 .26.058.26.174a.347.347 0 0 1-.087.217l-2.603 3.34a.52.52 0 0 1-.434.24c-.16 0-.304-.08-.434-.24l-2.603-3.34A.347.347 0 0 1 4 13.333c0-.116.087-.174.26-.174h1.432c0-1.302.322-2.498.966-3.59A7.245 7.245 0 0 1 9.26 6.965 6.943 6.943 0 0 1 12.85 6Z" fill="currentColor"/></svg>
